X: 2
T: Ornette's Trip To Belfast
R: reel
M: 4/4
L: 1/8
K: Bmin
~B3c dcBc|~A3F BAFE|D2 F/E/D F~A3|ABde fedc|~B3c dcBc|~A3F BAFE|DA F/E/D F~A3|1 ABde d2 dc:|2 ABde d3e||f2 af fbaf|afef d~B3|f2 af fbaf| afef d2 B/c/d|fgfd BedB|~A3G FGAF|DA F/E/D F~A3|1 ABde dbag:|2 ABde f2 ed||


Tune 2712	Setting 2712

